flaticon/gastronomy/steak.svg

<svg xmlns="http://www.w3.org/2000/svg" width="32" height="32" viewBox="0 0 24 24">
    <path d="M 22.964844 6.53125 C 22.109375 4.425781 20.515625 1.691406 17.773438 0.601562 C 15.761719 -0.203125 13.429688 -0.0078125 10.84375 1.167969 C 7.613281 2.644531 6.554688 5.285156 7.867188 8.609375 C 8.277344 9.640625 8.121094 10.765625 7.453125 11.621094 C 6.785156 12.476562 5.726562 12.898438 4.628906 12.753906 C 2.871094 12.523438 1.523438 12.917969 0.726562 13.894531 C 0.121094 14.644531 -0.417969 16.070312 0.46875 18.625 L 0.484375 18.667969 C 0.550781 18.808594 2.089844 22.070312 6.042969 23.378906 C 6.894531 23.660156 7.78125 23.738281 8.636719 23.816406 L 8.769531 23.828125 C 9.054688 23.851562 9.546875 23.886719 10.1875 23.886719 C 11.785156 23.886719 14.296875 23.679688 16.792969 22.648438 C 20.425781 21.144531 22.734375 18.464844 23.648438 14.6875 C 24.289062 12.03125 24.050781 9.210938 22.964844 6.53125 Z M 22.746094 14.46875 C 21.90625 17.945312 19.785156 20.410156 16.4375 21.792969 C 13.136719 23.15625 9.800781 22.988281 8.851562 22.90625 L 8.71875 22.890625 C 7.878906 22.816406 7.085938 22.746094 6.332031 22.5 C 2.917969 21.371094 1.457031 18.546875 1.335938 18.296875 C 0.761719 16.628906 0.800781 15.273438 1.445312 14.480469 C 2.027344 13.765625 3.085938 13.488281 4.507812 13.671875 C 5.941406 13.863281 7.3125 13.308594 8.183594 12.1875 C 9.054688 11.074219 9.257812 9.605469 8.730469 8.269531 C 7.59375 5.390625 8.433594 3.285156 11.230469 2.011719 C 13.578125 0.941406 15.664062 0.757812 17.429688 1.460938 C 19.871094 2.429688 21.320312 4.941406 22.105469 6.878906 C 23.121094 9.378906 23.34375 12.003906 22.746094 14.46875 Z M 22.746094 14.46875"/>
    <path d="M 15.492188 8.699219 C 16.769531 8.699219 17.808594 7.660156 17.808594 6.382812 C 17.808594 5.109375 16.769531 4.070312 15.492188 4.070312 C 14.21875 4.070312 13.179688 5.109375 13.179688 6.382812 C 13.179688 7.660156 14.21875 8.699219 15.492188 8.699219 Z M 15.492188 4.996094 C 16.257812 4.996094 16.882812 5.617188 16.882812 6.382812 C 16.882812 7.148438 16.257812 7.773438 15.492188 7.773438 C 14.726562 7.773438 14.105469 7.148438 14.105469 6.382812 C 14.105469 5.617188 14.726562 4.996094 15.492188 4.996094 Z M 15.492188 4.996094"/>
    <path d="M 22.125 11.226562 C 22.066406 9.902344 21.78125 8.566406 21.253906 7.265625 C 19.242188 2.316406 15.941406 0.808594 11.457031 2.851562 C 10.5625 3.261719 7.832031 4.503906 9.308594 8.238281 C 9.84375 9.601562 9.691406 11.0625 8.882812 12.25 C 7.964844 13.597656 6.382812 14.300781 4.742188 14.085938 C 3.523438 13.921875 2.609375 14.164062 2.1875 14.757812 C 1.738281 15.390625 1.742188 16.480469 2.199219 17.832031 L 2.226562 17.894531 C 2.457031 18.34375 3.757812 20.644531 6.710938 21.621094 C 7.382812 21.84375 8.113281 21.90625 8.890625 21.976562 L 9.019531 21.988281 C 9.414062 22.023438 9.835938 22.039062 10.273438 22.039062 C 19.019531 22.039062 21.28125 16.597656 21.847656 14.257812 C 22.078125 13.296875 22.167969 12.308594 22.128906 11.3125 C 22.132812 11.28125 22.128906 11.253906 22.125 11.226562 Z M 11.84375 3.695312 C 13.015625 3.160156 14.097656 2.886719 15.054688 2.886719 C 17.324219 2.886719 19.121094 4.480469 20.394531 7.613281 C 20.777344 8.550781 21.015625 9.507812 21.132812 10.464844 C 19.0625 9.878906 15.386719 11.699219 14.773438 12.011719 C 12.003906 12.894531 10.722656 11.632812 10.371094 11.183594 C 10.65625 10.121094 10.597656 8.984375 10.167969 7.898438 C 9.152344 5.328125 10.445312 4.332031 11.84375 3.695312 Z M 9.648438 12.769531 C 9.789062 12.566406 9.90625 12.355469 10.015625 12.136719 C 10.554688 12.632812 11.519531 13.242188 13 13.242188 C 13.609375 13.242188 14.304688 13.136719 15.09375 12.882812 C 15.121094 12.875 15.144531 12.867188 15.167969 12.855469 C 16.992188 11.902344 20.152344 10.75 21.210938 11.5 C 21.230469 12.359375 21.144531 13.210938 20.945312 14.039062 C 20.941406 14.058594 20.9375 14.078125 20.929688 14.097656 C 19.921875 13.8125 17.476562 13.53125 13.441406 15.464844 C 12.058594 16.128906 10.867188 16.257812 9.898438 15.851562 C 8.960938 15.457031 8.4375 14.644531 8.207031 14.183594 C 8.761719 13.816406 9.257812 13.34375 9.648438 12.769531 Z M 9.105469 21.0625 L 8.972656 21.050781 C 8.25 20.988281 7.570312 20.929688 7 20.742188 C 4.425781 19.886719 3.25 17.851562 3.0625 17.5 C 2.667969 16.304688 2.738281 15.578125 2.941406 15.292969 C 3.144531 15.011719 3.792969 14.890625 4.621094 15.003906 C 5.550781 15.125 6.457031 14.996094 7.28125 14.664062 C 7.308594 14.816406 7.339844 14.984375 7.367188 15.167969 C 7.601562 16.78125 8.5 18.230469 9.832031 19.148438 C 10.785156 19.804688 11.429688 20.398438 11.457031 21.074219 C 11.078125 21.097656 10.6875 21.113281 10.273438 21.113281 C 9.863281 21.113281 9.46875 21.097656 9.105469 21.0625 Z M 12.382812 20.992188 C 12.308594 19.734375 11.070312 18.878906 10.359375 18.386719 C 9.542969 17.824219 8.921875 17.027344 8.566406 16.113281 C 8.839844 16.339844 9.160156 16.542969 9.53125 16.699219 C 10.757812 17.21875 12.207031 17.085938 13.839844 16.300781 C 17.632812 14.480469 19.851562 14.765625 20.660156 14.988281 C 19.890625 17.105469 17.832031 20.324219 12.382812 20.992188 Z M 12.382812 20.992188"/>
</svg>

<svg xmlns="http://www.w3.org/2000/svg" width="32" height="32" viewBox="0 0 24 24">
    <path d="M22.965 6.531c-.856-2.105-2.45-4.84-5.192-5.93-2.011-.804-4.343-.609-6.93.567-3.23 1.477-4.288 4.117-2.976 7.441.41 1.032.254 2.157-.414 3.012-.668.856-1.726 1.277-2.824 1.133-1.758-.23-3.106.164-3.902 1.14-.606.75-1.145 2.176-.258 4.731l.015.043c.067.14 1.606 3.402 5.559 4.71.852.282 1.738.36 2.594.438l.133.012c.285.024.777.059 1.418.059 1.597 0 4.109-.207 6.605-1.239 3.633-1.503 5.941-4.183 6.855-7.96.641-2.657.403-5.477-.683-8.157zm-.219 7.938c-.84 3.476-2.96 5.941-6.308 7.324-3.301 1.363-6.637 1.195-7.586 1.113l-.133-.015c-.84-.075-1.633-.145-2.387-.391-3.414-1.129-4.875-3.953-4.996-4.203-.574-1.668-.535-3.024.11-3.817.581-.714 1.64-.992 3.062-.808 1.433.191 2.804-.363 3.676-1.485.87-1.113 1.074-2.582.546-3.917-1.136-2.88-.296-4.985 2.5-6.258 2.348-1.07 4.434-1.254 6.2-.551 2.441.969 3.89 3.48 4.675 5.418 1.016 2.5 1.239 5.125.641 7.59zm0 0"/>
    <path d="M15.492 8.7a2.319 2.319 0 0 0 2.317-2.317 2.318 2.318 0 0 0-2.317-2.313 2.317 2.317 0 0 0-2.312 2.313 2.318 2.318 0 0 0 2.312 2.316zm0-3.704c.766 0 1.39.621 1.39 1.387 0 .765-.624 1.39-1.39 1.39a1.39 1.39 0 0 1-1.387-1.39c0-.766.622-1.387 1.387-1.387zm0 0"/>
    <path d="M22.125 11.227a11.93 11.93 0 0 0-.871-3.961c-2.012-4.95-5.313-6.457-9.797-4.414-.895.41-3.625 1.652-2.148 5.386.535 1.364.382 2.825-.426 4.012-.918 1.348-2.5 2.05-4.14 1.836-1.22-.164-2.134.078-2.556.672-.449.633-.445 1.722.012 3.074l.028.063c.23.449 1.53 2.75 4.484 3.726.672.223 1.402.285 2.18.356l.129.011c.394.035.816.051 1.253.051 8.747 0 11.008-5.441 11.575-7.781.23-.961.32-1.95.28-2.945.005-.032 0-.06-.003-.086zM11.844 3.695c1.172-.535 2.254-.808 3.21-.808 2.27 0 4.067 1.593 5.34 4.726.383.938.622 1.895.739 2.852-2.07-.586-5.746 1.234-6.36 1.547-2.77.883-4.05-.38-4.402-.828a5.204 5.204 0 0 0-.203-3.286c-1.016-2.57.277-3.566 1.676-4.203zM9.648 12.77c.141-.204.258-.415.368-.633.539.496 1.504 1.105 2.984 1.105.61 0 1.305-.105 2.094-.36a.416.416 0 0 0 .074-.027c1.824-.953 4.984-2.105 6.043-1.355a9.88 9.88 0 0 1-.281 2.598c-1.008-.286-3.453-.567-7.489 1.367-1.382.664-2.574.793-3.543.387-.937-.395-1.46-1.207-1.691-1.668a5.223 5.223 0 0 0 1.441-1.414zm-.543 8.293l-.132-.012C8.25 20.988 7.57 20.93 7 20.742c-2.574-.855-3.75-2.89-3.938-3.242-.394-1.195-.324-1.922-.12-2.207.203-.281.851-.402 1.68-.29a5.265 5.265 0 0 0 2.66-.339c.027.152.058.32.085.504a5.867 5.867 0 0 0 2.465 3.98c.953.657 1.598 1.25 1.625 1.926-.379.024-.77.04-1.184.04-.41 0-.804-.016-1.168-.052zm3.278-.07c-.074-1.259-1.313-2.114-2.024-2.606a4.93 4.93 0 0 1-1.793-2.274c.274.227.594.43.965.586 1.227.52 2.676.387 4.309-.398 3.793-1.82 6.012-1.535 6.82-1.313-.77 2.117-2.828 5.336-8.277 6.004zm0 0"/>
</svg>
